src/Icon/svgs/square.svg

<svg width="24" height="24" viewBox="0 0 24 24" fill="none" xmlns="http://www.w3.org/2000/svg">
<path fill-rule="evenodd" clip-rule="evenodd" d="M4 9H9V4H4V9ZM2 2.88889C2 2.4 2.4 2 2.88889 2H10.1111C10.6 2 11 2.4 11 2.88889V10.1111C11 10.6 10.6 11 10.1111 11H2.88889C2.4 11 2 10.6 2 10.1111V2.88889ZM15 9H20V4H15V9ZM13 2.88889C13 2.4 13.4 2 13.8889 2H21.1111C21.6 2 22 2.4 22 2.88889V10.1111C22 10.6 21.6 11 21.1111 11H13.8889C13.4 11 13 10.6 13 10.1111V2.88889ZM9 20H4V15H9V20ZM2.88889 13C2.4 13 2 13.4 2 13.8889V21.1111C2 21.6 2.4 22 2.88889 22H10.1111C10.6 22 11 21.6 11 21.1111V13.8889C11 13.4 10.6 13 10.1111 13H2.88889ZM15 20H20V15H15V20ZM13 13.8889C13 13.4 13.4 13 13.8889 13H21.1111C21.6 13 22 13.4 22 13.8889V21.1111C22 21.6 21.6 22 21.1111 22H13.8889C13.4 22 13 21.6 13 21.1111V13.8889Z" fill="#1B1C1D"/>
</svg>

<svg xmlns="http://www.w3.org/2000/svg" width="24" height="24" fill="none"  xmlns:v="https://vecta.io/nano"><path fill-rule="evenodd" d="M4 9h5V4H4v5zM2 2.889A.89.89 0 0 1 2.889 2h7.222a.89.89 0 0 1 .889.889v7.222a.89.89 0 0 1-.889.889H2.889A.89.89 0 0 1 2 10.111V2.889zM15 9h5V4h-5v5zm-2-6.111A.89.89 0 0 1 13.889 2h7.222a.89.89 0 0 1 .889.889v7.222a.89.89 0 0 1-.889.889h-7.222a.89.89 0 0 1-.889-.889V2.889zM9 20H4v-5h5v5zm-6.111-7a.89.89 0 0 0-.889.889v7.222a.89.89 0 0 0 .889.889h7.222a.89.89 0 0 0 .889-.889v-7.222a.89.89 0 0 0-.889-.889H2.889zM15 20h5v-5h-5v5zm-2-6.111a.89.89 0 0 1 .889-.889h7.222a.89.89 0 0 1 .889.889v7.222a.89.89 0 0 1-.889.889h-7.222a.89.89 0 0 1-.889-.889v-7.222z" fill="#1b1c1d"/></svg>
